src/img/new-site/icon_tw2.svg

<?xml version="1.0" encoding="UTF-8"?>
<svg width="24px" height="24px" viewBox="0 0 24 24" version="1.1" xmlns="http://www.w3.org/2000/svg" xmlns:xlink="http://www.w3.org/1999/xlink">
    <!-- Generator: Sketch 42 (36781) - http://www.bohemiancoding.com/sketch -->
    <title>icon_tw</title>
    <desc>Created with Sketch.</desc>
    <defs></defs>
    <g id="Page-1" stroke="none" stroke-width="1" fill="none" fill-rule="evenodd">
        <g id="Artboard-Copy" transform="translate(-587.000000, -2238.000000)" fill="#FFFFFF">
            <g id="Group-18" transform="translate(0.000000, 2073.000000)">
                <g id="Group-16" transform="translate(211.000000, 20.000000)">
                    <g id="Group-17" transform="translate(332.000000, 0.000000)">
                        <g id="Group-12">
                            <g id="Group-2" transform="translate(40.000000, 97.000000)">
                                <g id="icon_tw" transform="translate(4.000000, 48.000000)">
                                    <path d="M18.2323077,8.05615385 C18.8669231,7.65 19.3561538,7.00615385 19.5857692,6.24 C18.9870251,6.6200228 18.3250229,6.8896695 17.6311538,7.03615385 C17.0671391,6.38246901 16.2479779,6.00465349 15.3846154,6 C13.685,6 12.3073077,7.46884615 12.3073077,9.28153846 C12.306997,9.53296291 12.3340799,9.7836729 12.3880769,10.0292308 C9.83,9.89307692 7.56153846,8.58692308 6.04423077,6.60115385 C5.76885957,7.10738224 5.62559626,7.67487953 5.62769231,8.25115385 C5.62769231,9.38884615 6.17,10.3938462 6.99615385,10.9823077 C6.50435851,10.9649589 6.02491344,10.8236655 5.60230769,10.5715385 L5.60230769,10.6130769 C5.60230769,12.2030769 6.66384615,13.53 8.07153846,13.8311538 C7.61952151,13.9624855 7.14234168,13.9818894 6.68115385,13.8876923 C7.07346154,15.1915385 8.21,16.14 9.55653846,16.1665385 C8.29347062,17.2347899 6.64189594,17.7274602 5,17.5257692 C6.38670346,18.4836251 8.03156619,18.9978459 9.71692308,19.0003846 C15.3776923,19.0003846 18.4734615,13.9996154 18.4734615,9.66230769 C18.4734615,9.52038462 18.47,9.37846154 18.4642308,9.23769231 C19.0726014,8.76685061 19.5925867,8.19178049 20,7.53923077 C19.441662,7.80353736 18.8450804,7.97799466 18.2323077,8.05615385 L18.2323077,8.05615385 Z" id="Shape"></path>
                                </g>
                            </g>
                        </g>
                    </g>
                </g>
            </g>
        </g>
    </g>
</svg>

<svg width="24" height="24" viewBox="0 0 24 24" xmlns="http://www.w3.org/2000/svg"><title>icon_tw</title><path d="M18.232 8.056a3.268 3.268 0 0 0 1.354-1.816c-.599.38-1.261.65-1.955.796A2.988 2.988 0 0 0 15.385 6c-1.7 0-3.078 1.469-3.078 3.282 0 .251.027.502.081.747-2.558-.136-4.826-1.442-6.344-3.428a3.427 3.427 0 0 0-.416 1.65c0 1.138.542 2.143 1.368 2.731a2.922 2.922 0 0 1-1.394-.41v.041c0 1.59 1.062 2.917 2.47 3.218-.452.131-.93.15-1.39.057.391 1.304 1.528 2.252 2.875 2.279A5.935 5.935 0 0 1 5 17.526 8.322 8.322 0 0 0 9.717 19c5.66 0 8.756-5 8.756-9.338 0-.142-.003-.284-.009-.424A6.502 6.502 0 0 0 20 7.539a5.866 5.866 0 0 1-1.768.517z" fill="#FFF" fill-rule="evenodd"/></svg>
